X:1
T: Surrey Hills
N:
C:"Carshalton Oaks" by John Gilbert
S: Play  3  times
A:
O:
R:
M:4/4
K:C
I:speed 200
%W: A1
% voice 1 (1 lines, 29 notes)
K:C
M:4/4
L:1/16
E4 G4 G4 A4 |c4 d4 e4 c4 |d6 e2 d4 c4 |A4 c4 A4 G4 |E4 G4 G4 A4 |c4 d4 e4 c4 |d6 e2 d4 c4 |g16 |
%W: A2
% voice 1 (1 lines, 29 notes)
E4 G4 G4 A4 |c4 d4 e4 c4 |d6 e2 d4 c4 |A4 c4 A4 G4 |E4 G4 G4 A4 |c4 d4 e4 c4 |d6 e2 d4 c4 |g16 |
%W: B1
% voice 1 (1 lines, 30 notes)
a6 b2 c'4 b4 |a4 g4 e4 c4 |f4 e4 d4 c4 |d4 c4 A4 G4 |a6 b2 c'4 b4 |a4 g4 e4 c4 |f4 e4 d4 c4 |A8 G8 |
%W: B2
% voice 1 (1 lines, 29 notes)
a6 b2 c'4 b4 |a4 g4 e4 c4 |f4 e4 d4 c4 |d4 c4 A4 G4 |E4 G4 G4 A4 |c6 d2 e4 c4 |A4 c4 c4 A4 |c16 ||
